apps/www/public/images/logos/frameworks/solidjs.svg

<svg width="62" height="61" viewBox="0 0 62 61" fill="none" xmlns="http://www.w3.org/2000/svg">
<path d="M26.6036 13.5595C35.9569 11.4125 48.0087 20.6009 48.0087 20.6009L43.9152 27.5037L43.8369 27.4882C43.8886 27.5276 43.9152 27.55 43.9152 27.55C43.9123 27.5445 43.6566 27.3469 43.1932 27.0197C40.4605 25.0901 30.5005 18.6515 22.51 20.4857C22.4711 20.4955 22.4317 20.5053 22.392 20.5152C22.1521 20.575 21.9026 20.6373 21.6867 20.7165C20.4651 21.1153 19.5009 21.755 18.8262 22.5442L18.8053 22.5401L22.2585 16.6069C22.3017 16.5371 22.3417 16.464 22.3821 16.39C22.4485 16.2684 22.5162 16.1446 22.6015 16.0298C23.2647 15.0601 24.3395 14.2521 25.7803 13.7904C25.9961 13.7112 26.2457 13.6489 26.4855 13.5891L26.4874 13.5886C26.5264 13.5789 26.5652 13.5692 26.6036 13.5595Z" fill="#7E7E7E"/>
<path d="M21.4546 30.3115L30.3998 27.3882C33.0987 26.5072 36.3229 27.0328 38.757 28.5331C38.7337 28.5172 39.4797 29.0111 39.5587 29.1001L42.9442 27.7685C42.6997 27.6012 41.8005 26.9483 41.4884 26.7449C40.2308 25.9258 38.4589 24.8586 36.4018 23.8593C32.2517 21.8432 27.0993 20.1828 22.6805 21.1939L22.5625 21.2235C22.3197 21.2842 22.1138 21.3357 21.9377 21.4003L21.9253 21.4049L21.9128 21.409C20.1779 21.9753 19.0916 23.0464 18.6521 24.2528C18.2145 25.4538 18.3771 26.8991 19.3579 28.3121C19.8933 29.0834 20.6135 29.7595 21.4546 30.3115Z" fill="#7E7E7E"/>
<path d="M37.1649 44.5327L37.1689 44.5413L37.1604 44.5398L37.1649 44.5327Z" fill="#7E7E7E"/>
<path d="M41.1088 35.9638L37.8597 41.8024C37.8009 40.8557 37.4574 39.8741 36.8031 38.9314C34.6077 35.7686 29.7366 34.1987 25.9176 35.4454L12.7197 39.7798L12.7818 39.5887L16.6279 32.6552L30.6259 28.0807C32.368 27.512 34.3819 27.5786 36.2289 28.1713C38.0772 28.7643 39.6975 29.8642 40.6868 31.2893C41.8269 32.9335 41.8703 34.6186 41.1088 35.9638Z" fill="#7E7E7E"/>
<path d="M14.0732 40.923C13.7652 40.7232 13.4883 40.5385 13.246 40.3736L26.1443 36.1376C27.8863 35.5692 29.8999 35.6358 31.7467 36.2284C33.5951 36.8215 35.2154 37.9215 36.2047 39.3468C37.1855 40.7598 37.3481 42.2051 36.9105 43.4061C36.471 44.6125 35.3847 45.6837 33.6499 46.25L33.6373 46.2541L33.6249 46.2586C33.4488 46.3232 33.2429 46.3747 33.0001 46.4355L32.8822 46.465C28.4633 47.4762 23.3108 45.8157 19.1605 43.8024C17.1032 42.8044 15.3312 41.7392 14.0732 40.923Z" fill="#7E7E7E"/>
</svg>

<svg xmlns="http://www.w3.org/2000/svg" width="62" height="61" fill="none" viewBox="0 0 62 61"><path fill="#7e7e7e" d="M26.604 13.56c9.353-2.148 21.405 7.04 21.405 7.04l-4.094 6.904-.078-.016q.078.061.078.062a16 16 0 0 0-.722-.53c-2.732-1.93-12.692-8.369-20.683-6.534l-.118.03c-.24.059-.49.121-.705.2-1.222.4-2.186 1.039-2.86 1.828l-.022-.004 3.454-5.933q.064-.105.123-.217c.066-.122.134-.245.22-.36.663-.97 1.738-1.778 3.178-2.24.216-.079.466-.141.705-.2l.002-.001z"/><path fill="#7e7e7e" d="m21.455 30.312 8.945-2.924c2.699-.88 5.923-.355 8.357 1.145-.023-.016.723.478.802.567l3.385-1.332c-.244-.167-1.144-.82-1.456-1.023a48 48 0 0 0-5.086-2.886c-4.15-2.016-9.303-3.676-13.722-2.665l-.117.03c-.243.06-.45.112-.625.176l-.013.005-.012.004c-1.735.566-2.821 1.637-3.26 2.844-.438 1.2-.276 2.646.705 4.06.535.77 1.255 1.447 2.097 1.999M37.165 44.533l.004.008-.009-.001z"/><path fill="#7e7e7e" d="m41.109 35.964-3.25 5.838c-.058-.946-.402-1.928-1.056-2.87-2.195-3.163-7.066-4.733-10.885-3.487L12.72 39.78l.062-.191 3.846-6.934 13.998-4.574c1.742-.569 3.756-.502 5.603.09 1.848.593 3.468 1.693 4.458 3.118 1.14 1.645 1.183 3.33.422 4.675"/><path fill="#7e7e7e" d="M14.073 40.923a45 45 0 0 1-.827-.55l12.898-4.235c1.742-.569 3.756-.502 5.603.09 1.848.593 3.468 1.694 4.458 3.119.98 1.413 1.143 2.858.706 4.06-.44 1.206-1.526 2.277-3.261 2.843l-.013.004-.012.005c-.176.064-.382.116-.625.176l-.118.03c-4.419 1.011-9.571-.65-13.721-2.663a48 48 0 0 1-5.088-2.879"/></svg>
